X: 1
T: Bill The Weaver's
M: 2/4
L: 1/8
R: polka
K: Bmin
|:dB fB|dB fe/d/|cA eA|cA e2|
fb ba|fb ba|fa fe|1d/c/B/A/ B>c:|2d/c/B/A/ B2||
|:a>f df|A/B/c/d/ e2|g/f/e/d/ cA|Bc df|
a>f df|A/B/c/d/ e2|g/f/e/d/ cA|1Bc df:|2Bc d/c/d/c/||
